src/images_karasa_jaga_svg/cmd/32/basicshapes.paper.svg

<svg height="32" viewBox="0 0 32 32" width="32" xmlns="http://www.w3.org/2000/svg" xmlns:xlink="http://www.w3.org/1999/xlink"><linearGradient id="a"><stop offset="0" stop-color="#7c9fcf"/><stop offset=".5" stop-color="#7c9ece"/><stop offset="1" stop-color="#7b9dcf"/></linearGradient><linearGradient id="b" gradientUnits="userSpaceOnUse" x1="64" x2="64" y1="128" y2="0"><stop offset="0" stop-color="#fff"/><stop offset=".53125" stop-color="#fff"/><stop offset=".82421875" stop-color="#f1f1f1"/><stop offset=".90234375" stop-color="#eaeaea"/><stop offset="1" stop-color="#dfdfdf"/></linearGradient><linearGradient id="c" gradientUnits="userSpaceOnUse" x1="11.986328" x2="120.01367" xlink:href="#a" y1="64" y2="64"/><linearGradient id="d" gradientUnits="userSpaceOnUse" x1="60.039062" x2="119.9586" xlink:href="#a" y1="97.999191" y2="97.999191"/><g transform="scale(.25)"><path d="m16 3.9863281a4.0139588 4.0139588 0 0 0 -4.013672 4.0136719v112a4.0139588 4.0139588 0 0 0 4.013672 4.01367h48a4.0139588 4.0139588 0 0 0 2.582031-.93945l51.999999-43.669923a4.0139588 4.0139588 0 0 0 1.43164-3.074219v-68.330078a4.0139588 4.0139588 0 0 0 -4.01367-4.0136719z" fill="url(#c)"/><path d="m16 8h100v68.330233l-52 43.669767h-48z" fill="url(#b)"/><path d="m64 72.039062a3.9621271 3.9621271 0 0 0 -3.960938 3.960938v44a3.9621271 3.9621271 0 0 0 6.519532 3.02344l51.999996-44.000002a3.9621271 3.9621271 0 0 0 -2.55859-6.984376z" fill="url(#d)"/><path d="m64 76h52l-52 44z" fill="#fff"/></g></svg>

<?xml version="1.0" encoding="UTF-8" standalone="no"?>
<svg
   xmlns:dc="http://purl.org/dc/elements/1.1/"
   xmlns:cc="http://creativecommons.org/ns#"
   xmlns:rdf="http://www.w3.org/1999/02/22-rdf-syntax-ns#"
   xmlns:svg="http://www.w3.org/2000/svg"
   xmlns="http://www.w3.org/2000/svg"
   xmlns:xlink="http://www.w3.org/1999/xlink"
   xmlns:sodipodi="http://sodipodi.sourceforge.net/DTD/sodipodi-0.dtd"
   xmlns:inkscape="http://www.inkscape.org/namespaces/inkscape"
   height="128"
   viewBox="0 0 128 128"
   width="128"
   version="1.1"
   id="svg31"
   sodipodi:docname="basicshapes.paper.svg"
   inkscape:version="0.92.3 (unknown)"
   inkscape:export-filename="/home/rizmut/Dokumen/Rizmut/Github/libreoffice-style-karasa-jaga/build/images_karasa_jaga/cmd/32/basicshapes.paper.png"
   inkscape:export-xdpi="24"
   inkscape:export-ydpi="24">
  <metadata
     id="metadata37">
    <rdf:RDF>
      <cc:Work
         rdf:about="">
        <dc:format>image/svg+xml</dc:format>
        <dc:type
           rdf:resource="http://purl.org/dc/dcmitype/StillImage" />
        <dc:title></dc:title>
      </cc:Work>
    </rdf:RDF>
  </metadata>
  <defs
     id="defs35">
    <linearGradient
       id="linearGradient3369">
      <stop
         id="stop3372"
         offset="0"
         style="stop-color:#ffffff;stop-opacity:1;" />
      <stop
         style="stop-color:#ffffff;stop-opacity:1;"
         offset="0.53125"
         id="stop3374" />
      <stop
         style="stop-color:#f1f1f1;stop-opacity:1;"
         offset="0.82421875"
         id="stop3376" />
      <stop
         id="stop3378"
         offset="0.90234375"
         style="stop-color:#eaeaea;stop-opacity:1;" />
      <stop
         id="stop3384"
         offset="1"
         style="stop-color:#dfdfdf;stop-opacity:1;" />
    </linearGradient>
    <linearGradient
       id="linearGradient7422">
      <stop
         style="stop-color:#7c9fcf;stop-opacity:1"
         offset="0"
         id="stop7424" />
      <stop
         id="stop5348"
         offset="0.5"
         style="stop-color:#7c9ece;stop-opacity:1" />
      <stop
         id="stop7426"
         offset="1"
         style="stop-color:#7b9dcf;stop-opacity:1" />
    </linearGradient>
    <linearGradient
       inkscape:collect="always"
       xlink:href="#linearGradient3369"
       id="linearGradient1360"
       x1="64"
       y1="128"
       x2="64"
       y2="0"
       gradientUnits="userSpaceOnUse" />
    <linearGradient
       inkscape:collect="always"
       xlink:href="#linearGradient7422"
       id="linearGradient1376"
       x1="11.986328"
       y1="64"
       x2="120.01367"
       y2="64"
       gradientUnits="userSpaceOnUse" />
    <linearGradient
       inkscape:collect="always"
       xlink:href="#linearGradient7422"
       id="linearGradient1378"
       x1="60.039062"
       y1="97.999191"
       x2="119.9586"
       y2="97.999191"
       gradientUnits="userSpaceOnUse" />
  </defs>
  <sodipodi:namedview
     pagecolor="#ffffff"
     bordercolor="#666666"
     borderopacity="1"
     objecttolerance="10"
     gridtolerance="10"
     guidetolerance="10"
     inkscape:pageopacity="0"
     inkscape:pageshadow="2"
     inkscape:window-width="1366"
     inkscape:window-height="706"
     id="namedview33"
     showgrid="true"
     inkscape:zoom="2"
     inkscape:cx="103.36178"
     inkscape:cy="64.330691"
     inkscape:window-x="-2"
     inkscape:window-y="-1"
     inkscape:window-maximized="0"
     inkscape:current-layer="svg31"
     inkscape:snap-global="false">
    <inkscape:grid
       type="xygrid"
       id="grid844"
       spacingx="4"
       spacingy="4"
       empspacing="1" />
  </sodipodi:namedview>
  <linearGradient
     id="a">
    <stop
       offset="0"
       stop-color="#f9f9fa"
       id="stop2" />
    <stop
       offset="1"
       stop-color="#f9f9fa"
       stop-opacity="0"
       id="stop4" />
  </linearGradient>
  <linearGradient
     id="b"
     gradientUnits="userSpaceOnUse"
     x1="42.276669"
     x2="-13.469376"
     xlink:href="#a"
     y1="50.867565"
     y2="104.97279" />
  <linearGradient
     id="c"
     gradientUnits="userSpaceOnUse"
     x1="-1.817377"
     x2="2.172436"
     xlink:href="#a"
     y1="55.003803"
     y2="116.784" />
  <path
     sodipodi:type="inkscape:offset"
     inkscape:radius="4.0135574"
     inkscape:original="M 16 8 L 16 120 L 64 120 L 116 76.330078 L 116 8 L 16 8 z "
     style="opacity:1;fill:url(#linearGradient1376);fill-opacity:1.0;stroke:none;stroke-width:4;stroke-linecap:square;stroke-linejoin:bevel;stroke-miterlimit:4;stroke-dasharray:none;stroke-dashoffset:0;stroke-opacity:1"
     id="path1362"
     d="M 16,3.9863281 A 4.0139588,4.0139588 0 0 0 11.986328,8 V 120 A 4.0139588,4.0139588 0 0 0 16,124.01367 h 48 a 4.0139588,4.0139588 0 0 0 2.582031,-0.93945 L 118.58203,79.404297 a 4.0139588,4.0139588 0 0 0 1.43164,-3.074219 V 8 A 4.0139588,4.0139588 0 0 0 116,3.9863281 Z" />
  <path
     style="opacity:1;fill:url(#linearGradient1360);fill-opacity:1;stroke:none;stroke-width:4;stroke-linecap:square;stroke-linejoin:bevel;stroke-miterlimit:4;stroke-dasharray:none;stroke-dashoffset:0;stroke-opacity:1"
     d="M 16,8 H 116 V 76.330233 L 64,120 H 16 Z"
     id="rect1001"
     inkscape:connector-curvature="0"
     sodipodi:nodetypes="cccccc" />
  <path
     sodipodi:type="inkscape:offset"
     inkscape:radius="3.961731"
     inkscape:original="M 64 76 L 64 120 L 116 76 L 64 76 z "
     style="opacity:1;fill:url(#linearGradient1378);fill-opacity:1.0;stroke:none;stroke-width:4;stroke-linecap:square;stroke-linejoin:bevel;stroke-miterlimit:4;stroke-dasharray:none;stroke-dashoffset:0;stroke-opacity:1"
     id="path1366"
     d="M 64,72.039062 A 3.9621271,3.9621271 0 0 0 60.039062,76 v 44 a 3.9621271,3.9621271 0 0 0 6.519532,3.02344 L 118.55859,79.023438 A 3.9621271,3.9621271 0 0 0 116,72.039062 Z" />
  <path
     sodipodi:nodetypes="cccc"
     inkscape:connector-curvature="0"
     id="path1004"
     d="m 64,76 h 52 l -52,44 z"
     style="opacity:1;fill:#ffffff;fill-opacity:1;stroke:none;stroke-width:4;stroke-linecap:square;stroke-linejoin:bevel;stroke-miterlimit:4;stroke-dasharray:none;stroke-dashoffset:0;stroke-opacity:1" />
</svg>
